Obsidian-SemiLight/actions/16s/text_letter_spacing.svg

<svg viewBox="0 0 16 16" xmlns="http://www.w3.org/2000/svg"><path d="m2 2v5h1 1.5c.82843 0 1.5-.67157 1.5-1.5 0-.5333018-.2681977-1.015272-.6875-1.28125.1154583-.21254.1875-.4598656.1875-.71875 0-.82843-.67157-1.5-1.5-1.5h-1-.5zm8 0v5h1 1.5c.82843 0 1.5-.67157 1.5-1.5v-2c0-.82843-.67157-1.5-1.5-1.5h-1.5zm-7 1h1c.27614 0 .5.22386.5.5s-.22386.5-.5.5h-1zm8 0h1.5c.27614 0 .5.22386.5.5v.59375.8125.59375c0 .27614-.22386.5-.5.5h-1.5zm-4 1v1h2v-1zm-4 1h1.5c.27614 0 .5.22386.5.5s-.22386.5-.5.5h-1.5zm-1 4v1h3v-1zm5 0v1h2v-1zm4 0v1h3v-1zm-5 2-4 1.5 4 1.5zm4 0v3l4-1.5zm-2 1c-.2761424 0-.5.223858-.5.5s.2238576.5.5.5.5-.223858.5-.5-.2238576-.5-.5-.5z" fill="#4d4d4d"/></svg>

<svg xmlns="http://www.w3.org/2000/svg" viewBox="0 0 16 16">
  <defs id="defs3051">
    <style type="text/css" id="current-color-scheme">
      .ColorScheme-Text {
        color:#4d4d4d;
      }
      </style>
  </defs>
 <path style="fill:currentColor;fill-opacity:1;stroke:none" 
       d="M 2 2 L 2 7 L 3 7 L 4.5 7 C 5.32843 7 6 6.32843 6 5.5 C 6 4.9666982 5.7318023 4.484728 5.3125 4.21875 C 5.4279583 4.00621 5.5 3.7588844 5.5 3.5 C 5.5 2.67157 4.82843 2 4 2 L 3 2 L 2.5 2 L 2 2 z M 10 2 L 10 7 L 11 7 L 12.5 7 C 13.32843 7 14 6.32843 14 5.5 L 14 3.5 C 14 2.67157 13.32843 2 12.5 2 L 11 2 L 10 2 z M 3 3 L 4 3 C 4.27614 3 4.5 3.22386 4.5 3.5 C 4.5 3.77614 4.27614 4 4 4 L 3 4 L 3 3 z M 11 3 L 12.5 3 C 12.77614 3 13 3.22386 13 3.5 L 13 4.09375 L 13 4.90625 L 13 5.5 C 13 5.77614 12.77614 6 12.5 6 L 11 6 L 11 3 z M 7 4 L 7 5 L 9 5 L 9 4 L 7 4 z M 3 5 L 4.5 5 C 4.77614 5 5 5.22386 5 5.5 C 5 5.77614 4.77614 6 4.5 6 L 3 6 L 3 5 z M 2 9 L 2 10 L 5 10 L 5 9 L 2 9 z M 7 9 L 7 10 L 9 10 L 9 9 L 7 9 z M 11 9 L 11 10 L 14 10 L 14 9 L 11 9 z M 6 11 L 2 12.5 L 6 14 L 6 11 z M 10 11 L 10 14 L 14 12.5 L 10 11 z M 8 12 C 7.7238576 12 7.5 12.223858 7.5 12.5 C 7.5 12.776142 7.7238576 13 8 13 C 8.2761424 13 8.5 12.776142 8.5 12.5 C 8.5 12.223858 8.2761424 12 8 12 z "
     class="ColorScheme-Text"
     />
</svg>
